/* XPM */
static char* CheckmarkIcon[] = {
"20 20 2 1",
"   c None",
"A  c #000000",
"                    ",
"                    ",
"  AAAAAAAAAAAAAAAA  ",
"  A              A  ",
"  A            A A  ",
"  A           AA A  ",
"  A          AA  A  ",
"  A          A   A  ",
"  A         AA   A  ",
"  A  A     AA    A  ",
"  A  AA    A     A  ",
"  A   AA  AA     A  ",
"  A    AA A      A  ",
"  A     AAA      A  ",
"  A      A       A  ",
"  A              A  ",
"  A              A  ",
"  AAAAAAAAAAAAAAAA  ",
"                    ",
"                    "
};