/* XPM */
static char* SelectIcon[] = {
"20 20 2 1",
"   c None",
"A  c #000000",
"                    ",
"                    ",
"  A A A A A A A A   ",
"   A A A A A A A A  ",
"  A             A   ",
"   A             A  ",
"  A       AA    A   ",
"   A      AAA    A  ",
"  A       AAAA      ",
"   A      AAAAA     ",
"  A       AAAAAA    ",
"   A      AAAAAAA   ",
"  A       AAAAAAAA  ",
"   A      AAAAAAAAA ",
"  A       AAAAAAAAA ",
"   A      AAAAA     ",
"  A A A   AAAA      ",
"   A A A  AAA       ",
"          AA        ",
"                    "
};
